public/library/passport-xyz-icon-light.svg

<svg width="125" height="144" viewBox="0 0 125 144" fill="none" xmlns="http://www.w3.org/2000/svg">
<path d="M60.3699 142.435L2.1201 108.805C0.808289 108.047 0 106.648 0 105.132V37.8716C0 36.3558 0.808289 34.9565 2.1201 34.1986L60.3699 0.568452C61.6817 -0.189484 63.2983 -0.189484 64.6101 0.568452L122.86 34.1986C124.172 34.9565 124.98 36.3558 124.98 37.8716V105.132C124.98 106.648 124.172 108.047 122.86 108.805L64.6101 142.435C63.2983 143.193 61.6817 143.193 60.3699 142.435ZM12.7206 102.686L60.3699 130.197C61.6817 130.955 63.2983 130.955 64.6101 130.197L112.259 102.686C113.571 101.928 114.38 100.529 114.38 99.0127V43.9934C114.38 42.4776 113.571 41.0783 112.259 40.3204L64.6101 12.8094C63.2983 12.0515 61.6817 12.0515 60.3699 12.8094L12.7206 40.3204C11.4088 41.0783 10.6005 42.4776 10.6005 43.9934V99.0127C10.6005 100.529 11.4088 101.928 12.7206 102.686Z" fill="url(#paint0_linear_1401_1105)"/>
<path d="M60.3696 22.5408L21.1477 45.1861C19.8359 45.944 19.0276 47.3433 19.0276 48.8592V91.7011C19.0276 94.7302 20.6442 97.5314 23.2678 99.0446L28.038 101.798C28.7456 102.206 29.6281 101.697 29.6281 100.881V54.981C29.6281 53.4651 30.4364 52.0658 31.7482 51.3079L60.3696 34.7843C61.6814 34.0264 63.298 34.0264 64.6098 34.7843L93.2311 51.3079C94.543 52.0658 95.3512 53.4651 95.3512 54.981V88.0307C95.3512 89.5466 94.543 90.9459 93.2311 91.7038L64.6098 108.227C63.298 108.985 61.6814 108.985 60.3696 108.227L50.8291 102.72C49.5173 101.962 48.709 100.563 48.709 99.0473V65.9976C48.709 64.4817 49.5173 63.0824 50.8291 62.3245L60.3696 56.8175C61.6814 56.0596 63.298 56.0596 64.6098 56.8175L74.1502 62.3245C75.462 63.0824 76.2703 64.4817 76.2703 65.9976V77.0141C76.2703 78.53 75.462 79.9293 74.1502 80.6872L69.38 83.4407C68.6724 83.8488 67.7899 83.34 67.7899 82.5238V75.7474V70.9692C67.7899 69.4533 66.9816 68.0541 65.6698 67.2961L63.5497 66.0718C62.8925 65.6928 62.0869 65.6928 61.4296 66.0718L58.7795 67.6009C57.7963 68.168 57.1894 69.2201 57.1894 70.3544V71.5019V94.1949C57.1894 95.7161 58.0057 97.1207 59.3254 97.8759L60.3484 98.459C61.6575 99.2063 63.2662 99.2036 64.5727 98.4484L84.7507 86.7984C86.0626 86.0405 86.8708 84.6412 86.8708 83.1253V59.8678C86.8708 58.3519 86.0626 56.9527 84.7507 56.1947L64.6098 44.566C63.298 43.808 61.6814 43.808 60.3696 44.566L40.2286 56.1947C38.9168 56.9527 38.1085 58.3519 38.1085 59.8678V105.156C38.1085 106.672 38.9168 108.071 40.2286 108.829L60.3696 120.458C61.6814 121.216 63.298 121.216 64.6098 120.458L103.832 97.8123C105.143 97.0544 105.952 95.6551 105.952 94.1392V48.8512C105.952 47.3354 105.143 45.9361 103.832 45.1781L64.6098 22.5328C63.298 21.7749 61.6814 21.7749 60.3696 22.5328V22.5408Z" fill="url(#paint1_linear_1401_1105)"/>
<defs>
<linearGradient id="paint0_linear_1401_1105" x1="26.6423" y1="2.98222" x2="91.6012" y2="140.752" gradientUnits="userSpaceOnUse">
<stop stop-color="#4A47D3"/>
<stop offset="1" stop-color="#C1F6FF"/>
</linearGradient>
<linearGradient id="paint1_linear_1401_1105" x1="37.5574" y1="24.0302" x2="82.4411" y2="119.605" gradientUnits="userSpaceOnUse">
<stop stop-color="#4A47D3"/>
<stop offset="1" stop-color="#C1F6FF"/>
</linearGradient>
</defs>
</svg>

<svg xmlns="http://www.w3.org/2000/svg" width="125" height="144" fill="none" viewBox="0 0 125 144"><path fill="url(#a)" d="m60.37 142.435-58.25-33.63A4.24 4.24 0 0 1 0 105.132v-67.26c0-1.516.808-2.916 2.12-3.673L60.37.569a4.24 4.24 0 0 1 4.24 0l58.25 33.63a4.24 4.24 0 0 1 2.12 3.673v67.26a4.24 4.24 0 0 1-2.12 3.673l-58.25 33.63a4.24 4.24 0 0 1-4.24 0m-47.65-39.749 47.65 27.511a4.24 4.24 0 0 0 4.24 0l47.649-27.511a4.24 4.24 0 0 0 2.121-3.673v-55.02a4.24 4.24 0 0 0-2.121-3.673L64.61 12.81a4.24 4.24 0 0 0-4.24 0L12.72 40.32a4.24 4.24 0 0 0-2.12 3.673v55.02c0 1.516.809 2.915 2.12 3.673"/><path fill="url(#b)" d="M60.37 22.54 21.148 45.187a4.24 4.24 0 0 0-2.12 3.673v42.842c0 3.03 1.616 5.83 4.24 7.344l4.77 2.753a1.06 1.06 0 0 0 1.59-.917v-45.9c0-1.516.808-2.915 2.12-3.673L60.37 34.784a4.24 4.24 0 0 1 4.24 0L93.23 51.308a4.24 4.24 0 0 1 2.12 3.673v33.05a4.24 4.24 0 0 1-2.12 3.673L64.61 108.227a4.24 4.24 0 0 1-4.24 0l-9.54-5.507a4.24 4.24 0 0 1-2.121-3.673v-33.05c0-1.515.808-2.915 2.12-3.672l9.54-5.507a4.24 4.24 0 0 1 4.24 0l9.541 5.507a4.24 4.24 0 0 1 2.12 3.673v11.016a4.24 4.24 0 0 1-2.12 3.673l-4.77 2.754a1.06 1.06 0 0 1-1.59-.917V70.969a4.24 4.24 0 0 0-2.12-3.673l-2.12-1.224a2.12 2.12 0 0 0-2.12 0L58.78 67.6a3.18 3.18 0 0 0-1.59 2.753v23.841c0 1.521.816 2.926 2.135 3.68l1.023.584a4.24 4.24 0 0 0 4.225-.01l20.178-11.65a4.24 4.24 0 0 0 2.12-3.674V59.868a4.24 4.24 0 0 0-2.12-3.673L64.61 44.566a4.24 4.24 0 0 0-4.24 0L40.229 56.195a4.24 4.24 0 0 0-2.12 3.673v45.288c0 1.516.808 2.915 2.12 3.673l20.14 11.629a4.24 4.24 0 0 0 4.24 0l39.223-22.646a4.24 4.24 0 0 0 2.12-3.673V48.851a4.24 4.24 0 0 0-2.12-3.673L64.61 22.533a4.24 4.24 0 0 0-4.24 0z"/><defs><linearGradient id="a" x1="26.642" x2="91.601" y1="2.982" y2="140.752" gradientUnits="userSpaceOnUse"><stop stop-color="#4a47d3"/><stop offset="1" stop-color="#c1f6ff"/></linearGradient><linearGradient id="b" x1="37.557" x2="82.441" y1="24.03" y2="119.605" gradientUnits="userSpaceOnUse"><stop stop-color="#4a47d3"/><stop offset="1" stop-color="#c1f6ff"/></linearGradient></defs></svg>
